packages/ui/app/images/icons/path.svg

<?xml version="1.0" standalone="no"?><!DOCTYPE svg PUBLIC "-//W3C//DTD SVG 1.1//EN" "http://www.w3.org/Graphics/SVG/1.1/DTD/svg11.dtd"><svg class="icon" width="200px" height="200.00px" viewBox="0 0 1024 1024" version="1.1" xmlns="http://www.w3.org/2000/svg"><path fill="#8a8a8a" d="M714.666667 298.666667c0-29.866667-23.466667-53.333333-53.333334-53.333334s-53.333333 23.466667-53.333333 53.333334 23.466667 53.333333 53.333333 53.333333 53.333333-23.466667 53.333334-53.333333z m64 384h-533.333334C215.466667 682.666667 192 659.2 192 629.333333s23.466667-53.333333 53.333333-53.333333H661.333333s164.266667-130.133333 164.266667-258.133333c0-91.733333-72.533333-168.533333-164.266667-168.533334s-164.266667 74.666667-164.266666 168.533334c0 83.2 68.266667 168.533333 117.333333 217.6H245.333333C192 533.333333 149.333333 576 149.333333 629.333333S192 725.333333 245.333333 725.333333h533.333334c29.866667 0 53.333333 23.466667 53.333333 53.333334S808.533333 832 778.666667 832h-533.333334v42.666667h533.333334c53.333333 0 96-42.666667 96-96S832 682.666667 778.666667 682.666667zM539.733333 317.866667c0-68.266667 53.333333-125.866667 121.6-125.866667 66.133333 0 121.6 55.466667 121.6 125.866667 0 72.533333-72.533333 157.866667-121.6 202.666666-49.066667-46.933333-121.6-130.133333-121.6-202.666666z" /></svg>

<svg width="200" height="200" viewBox="0 0 1024 1024" xmlns="http://www.w3.org/2000/svg">
  <path fill="#8a8a8a" d="M714.667 298.667c0-29.867-23.467-53.334-53.334-53.334S608 268.8 608 298.667 631.467 352 661.333 352s53.334-23.467 53.334-53.333zm64 384H245.333c-29.866 0-53.333-23.467-53.333-53.334S215.467 576 245.333 576h416S825.6 445.867 825.6 317.867c0-91.734-72.533-168.534-164.267-168.534S497.067 224 497.067 317.867c0 83.2 68.266 168.533 117.333 217.6H245.333c-53.333-2.134-96 40.533-96 93.866s42.667 96 96 96h533.334c29.866 0 53.333 23.467 53.333 53.334S808.533 832 778.667 832H245.333v42.667h533.334c53.333 0 96-42.667 96-96s-42.667-96-96-96zm-238.934-364.8c0-68.267 53.334-125.867 121.6-125.867 66.134 0 121.6 55.467 121.6 125.867 0 72.533-72.533 157.866-121.6 202.666-49.066-46.933-121.6-130.133-121.6-202.666z"/>
</svg>
